!!!COM: Palestrina, Giovanni Perluigi da
!!!OPR: Missa Sanctorum meritis
!!!OMD: Credo
!!!OTL: First Section
**kern	**kern	**kern	**kern
*Ibass	*Itenor	*Icalto	*Icant
!Bassus	!Tenor	!Altus	!Cantus
*clefF4	*clefGv2	*clefG2	*clefG2
*k[]	*k[]	*k[]	*k[]
*E:phr	*E:phr	*E:phr	*E:phr
*M4/2	*M4/2	*M4/2	*M4/2
=1	=1	=1	=1
0r	0r	0r	1d
.	.	.	1e
=2	=2	=2	=2
0r	1D	0r	1f
.	1E	.	2g
.	.	.	2g
=3	=3	=3	=3
0r	1F	1A	1a
.	2G	1B	1g
.	2G	.	.
=4	=4	=4	=4
0r	1A	1c	2r
.	.	.	1cc
.	1G	2d	.
.	.	2d	2b
=5	=5	=5	=5
0r	1c	1e	2g
.	.	.	2.a
.	2B	[1d	.
.	.	.	4g
.	2G	.	[2g
=6	=6	=6	=6
1D	1A	1d]	2g]
.	.	.	2f#
1E	4G	2r	1g
.	4A	.	.
.	4B	2g	.
.	4c	.	.
=7	=7	=7	=7
1F	4d	1f	2r
.	4c	.	.
.	2.c	.	1a
2G	.	2d	.
.	4B	.	.
2G	4B	[2e	[2g
.	8A	.	.
.	8B	.	.
=8	=8	=8	=8
1A	1c	4e]	2g]
.	.	4d	.
.	.	2c	2f#
[1G	1d	2B	1g
.	.	2d	.
=9	=9	=9	=9
2G]	1B	2d	0g
2G	.	2d	.
2G	2B	2e	.
2G	2B	[2d	.
=10	=10	=10	=10
1A	1c	2d]	1r
.	.	1c	.
[1G	1d	.	2r
.	.	4B	2g
.	.	4A	.
=11	=11	=11	=11
1G]	1r	1B	2g
.	.	.	2g
1F	2r	4A	1a
.	.	4B	.
.	2c	4c	.
.	.	4d	.
=12	=12	=12	=12
1E	2c	1e	2g
.	2c	.	2g
1D	1d	2A	1f
.	.	[2B	.
=13	=13	=13	=13
0E	2c	2B]	[0e
.	2c	1A	.
.	1B	.	.
.	.	2G#	.
=14	=14	=14	=14
1AA	0A	4A	1e]
.	.	4B	.
.	.	4c	.
.	.	4d	.
1r	.	1e	2.cc
.	.	.	4cc
=15	=15	=15	=15
2.c	2.e	1r	2cc
.	.	.	2cc
4c	4e	.	.
2c	2e	2.g	2g
2c	2e	.	[2cc
.	.	4g	.
=16	=16	=16	=16
1G	1d	2g	4cc]
.	.	.	4b
.	.	2g	2.b
2.A	2.c	2e	.
.	.	.	4a
.	.	[2e	[2a
4A	8B	.	.
.	8A	.	.
=17	=17	=17	=17
1E	2B	2e]	2a]
.	2B	2e	2g#
1r	[1A	2c	[1a
.	.	[2f	.
=18	=18	=18	=18
1.F	1A]	2f]	0a]
.	.	2f	.
.	2r	2.c	.
2F	[2c	.	.
.	.	4d	.
=19	=19	=19	=19
2.C	2c]	2e	0r
.	2c	2e	.
4D	.	.	.
2E	2G	1B	.
2E	2G	.	.
=20	=20	=20	=20
0AA	2A	2.c	2r
.	2A	.	1cc
.	.	4d	.
.	2E	[1e	.
.	[2c	.	2cc
=21	=21	=21	=21
1r	2c]	2e]	2g
.	2B	2d	2g
2r	2.A	2f	2a
[2c	.	[2e	2a
.	4B	.	.
=22	=22	=22	=22
2c]	4c	2e]	2.e
.	4d	.	.
2c	1e	1g	.
.	.	.	4f
2G	.	.	4g
.	.	.	4a
2G	2d	2g	[2b
=23	=23	=23	=23
1A	2c	0e	4b]
.	.	.	4a
.	4B	.	1a
.	4A	.	.
1E	2B	.	.
.	2B	.	2g#
=24	=24	=24	=24
0A	2A	2r	1a
.	1c#	1e	.
.	.	.	2r
.	2c#	2e	[2a
=25	=25	=25	=25
0r	1d	1f	2a]
.	.	.	2a
.	2.G	2.d	1b
.	4A	4c	.
=26	=26	=26	=26
0r	2B	2d	2.g
.	2.c	2.e	.
.	.	.	4f
.	.	.	2g
.	4B	4d	.
.	4A	[2f	[2a
.	4G	.	.
=27	=27	=27	=27
1r	2F	2f]	2a]
.	2C	2.e	2g
[1A	1D	.	1f
.	.	4d	.
.	.	[2d	.
=28	=28	=28	=28
1A]	1r	2d]	1e
.	.	2c#	.
1B	[1d	2d	1r
.	.	2G	.
=29	=29	=29	=29
2.G	1d]	2.B	0r
4F#	.	4A	.
2G	1e	2B	.
[2A	.	[2c	.
=30	=30	=30	=30
4A]	2.c	2c]	0a
4G	.	.	.
1F	.	2A	.
.	4B	.	.
.	2c	1f	.
2D	[2d	.	.
=31	=31	=31	=31
2.G	4d]	1d	1b
.	4c	.	.
.	4B	.	.
4F	4A	.	.
4E	2B	1e	2.g
4D	.	.	.
[2C	[2c	.	.
.	.	.	4f
=32	=32	=32	=32
2C]	4c]	1e	2g
.	4B	.	.
2AA	4c	.	1a
.	4A	.	.
1E	1B	2r	.
.	.	[2e	2g#
=33	=33	=33	=33
2AA	2.A	2e]	1a
1A	.	2c	.
.	4c	.	.
.	1B	1d	1r
2G	.	.	.
=34	=34	=34	=34
2A	1A	2f	2r
1c	.	4e	1a
.	.	4d	.
.	1r	4e	.
.	.	4c	.
2B	.	4d	2g#
.	.	4e	.
=35	=35	=35	=35
2.A	2r	2f	2a
.	1A	2e	1cc
8G	.	.	.
8F	.	.	.
1E	.	2.e	.
.	2G	.	2b
.	.	4d	.
=36	=36	=36	=36
2.F	2A	4c	2.a
.	.	4B	.
.	1c	1A	.
8E	.	.	8g
8D	.	.	8f
2C	.	.	2e
2E	2B	2G	2g
=37	=37	=37	=37
2.F	2.A	2c	1.f
.	.	2c	.
4E	4G	.	.
2D	2A	1d	.
2D	2B	.	2f
=38	=38	=38	=38
0C	0c	2r	2e
.	.	1e	1g
.	.	2c	2e
=39	=39	=39	=39
0r	1r	2d	2f
.	.	2e	2g
.	2r	4A	2.a
.	.	4B	.
.	[2A	4c	.
.	.	4d	4b
=40	=40	=40	=40
0r	2A]	4e	4cc
.	.	4c	4a
.	2F	2f	1dd
.	2G	1e	.
.	2A	.	2cc
=41	=41	=41	=41
0r	4D	1f	2.a
.	4E	.	.
.	4F	.	.
.	4G	.	4b
.	4A	[1e	2.cc
.	4B	.	.
.	[2c	.	.
.	.	.	8b
.	.	.	8a
=42	=42	=42	=42
2r	2c]	2e]	0g
1G	4B	4d	.
.	4A	4c	.
.	2B	2d	.
2E	[2c	2e	.
=43	=43	=43	=43
2F	2c]	1d	2r
2G	2B	.	2g
2.A	1c	2r	2e
.	.	[2c	2f
8G	.	.	.
8F	.	.	.
=44	=44	=44	=44
4E	0r	2c]	2g
4C	.	.	.
2F	.	2A	1a
2E	.	2B	.
2E	.	2c	[2g
=45	=45	=45	=45
0D	1.A	2.d	2g]
.	.	.	4f
.	.	8c	4e
.	.	8B	.
.	.	2A	2.f
.	2F	[2d	.
.	.	.	4d
=46	=46	=46	=46
0r	2G	2d]	1e
.	2A	2c#	.
.	4D	4d	2f
.	4E	4c	.
.	4F	4A	2f
.	4G	4B	.
=47	=47	=47	=47
1r	4A	4c	1e
.	4B	4d	.
.	4c	4e	.
.	4A	4c	.
2r	2B	2d	1r
2F	[2A	2c	.
=48	=48	=48	=48
2D	2A]	1B	2r
2E	2G	.	2e
1F	1A	2r	2c
.	.	2A	2d
=49	=49	=49	=49
2.E	1B	2A	1e
.	.	2G#	.
4D	.	.	.
4C	2r	1A	1e
4AA	.	.	.
[2A	2c	.	.
=50	=50	=50	=50
2A]	2A	0e	1r
2G#	2B	.	.
2A	4c	.	2r
.	4d	.	.
2A	4e	.	2cc
.	4c	.	.
=51	=51	=51	=51
2F	1d	2r	2a
2G	.	2g	2b
2A	1c	2e	2cc
2A	.	2f#	2cc
=52	=52	=52	=52
1G	2r	2.g	2.b
.	2d	.	.
.	.	8f	4a
.	.	8e	.
1r	2B	2d	[1g
.	2c	2e	.
=53	=53	=53	=53
1.G	2d	2.B	1g]
.	2d	.	.
.	.	4c	.
.	1G	4d	2r
.	.	4B	.
2E	.	[2e	[2g
=54	=54	=54	=54
1A	2r	2e]	2g]
.	1c	4d	2f#
.	.	4c	.
1G	.	1d	1g
.	2B	.	.
=55	=55	=55	=55
2r	1e	2r	1g
2E	.	1c	.
2F	2d	.	1r
2G	2d	2B	.
=56	=56	=56	=56
4C	2c	1e	0r
4D	.	.	.
4E	4G	.	.
4F	4A	.	.
4G	4B	1d	.
4A	4c	.	.
4B	4d	.	.
4G	4B	.	.
=57	=57	=57	=57
4A	4c	0r	0r
4B	4d	.	.
2.c	2e	.	.
.	4A	.	.
4B	4B	.	.
[2A	4c	.	.
.	4A	.	.
=58	=58	=58	=58
2A]	1B	2r	1r
2G#	.	1e	.
2.A	1A	.	2r
.	.	2c	[2a
4G	.	.	.
=59	=59	=59	=59
2F	0r	2d	2a]
2E	.	2e	2g
1D	.	2f	2a
.	.	4e	2b
.	.	4d	.
=60	=60	=60	=60
1r	1r	2c	2cc
.	.	2d	4b
.	.	.	4a
2r	2r	1e	2g
[2A	[2c	.	2a
=61	=61	=61	=61
2A]	2c]	2r	1e
2G	2B	1e	.
2A	2c	.	1r
2B	2B	2d	.
=62	=62	=62	=62
2c	2A	2e	1r
4B	2D	2f	.
4A	.	.	.
2G	2d	2g	2r
2A	2c	4f	[2a
.	.	4e	.
=63	=63	=63	=63
2D	1B	2f	2a]
2E	.	1e	2g
2F	1r	.	2a
2G	.	2d	2b
=64	=64	=64	=64
2.C	2r	1e	2cc
.	1A	.	4b
4D	.	.	4a
1E	.	2r	2cc
.	2G	[2e	2b
=65	=65	=65	=65
0r	2A	2e]	2a
.	2B	2d	2.g
.	2c	2e	.
.	.	.	4f
.	4B	2f	2d
.	4A	.	.
=66	=66	=66	=66
0r	2G	4g	1e
.	.	4f	.
.	2.A	4e	.
.	.	4d	.
.	.	2c	2r
.	4E	.	.
.	2G	2B	[2e
=67	=67	=67	=67
2r	1F	1A	2e]
1A	.	.	2d
.	1E	1B	1e
2G	.	.	.
=68	=68	=68	=68
2A	0r	2c	2f
2B	.	2d	2.g
2c	.	[1e	.
.	.	.	4f
4B	.	.	4g
4A	.	.	4a
=69	=69	=69	=69
2G	2r	2e]	2b
2A	1A	2e	2cc
1E	.	1e	2b
.	2G	.	[2cc
=70	=70	=70	=70
2F	2A	2d	2cc]
2G	2B	2d	2b
1C	1c	1e	4a
.	.	.	4g
.	.	.	[2g
=71	=71	=71	=71
1D	2.A	2r	2g]
.	.	2d	2f#
.	4A	.	.
2r	1G	2d	[1g
2G	.	2d	.
=72	=72	=72	=72
2G	0r	4B	0g]
.	.	4c	.
2G	.	4d	.
.	.	4B	.
4E	.	4c	.
4F	.	4d	.
4G	.	2e	.
4E	.	.	.
=73	=73	=73	=73
4F	1r	2d	0r
4G	.	.	.
2A	.	2c	.
2G	2r	2B	.
[2F	2c	4A	.
.	.	4G	.
=74	=74	=74	=74
2F]	2c	4A	1r
.	.	4B	.
2E	2c	1c	.
2F	1d	.	2r
2G	.	2B	2g
=75	=75	=75	=75
0C	0e	2c	2g
.	.	2c	2g
.	.	2c	4e
.	.	.	4f
.	.	2c	4g
.	.	.	4e
=76	=76	=76	=76
0r	2r	2d	4f
.	.	.	4g
.	2A	2f	2a
.	4c	4e	2g
.	4B	4d	.
.	4A	4c	[2f
.	4G	4B	.
=77	=77	=77	=77
0r	4F	4A	4f]
.	4G	4B	4e
.	2A	1c	2c
.	1G	.	1d
.	.	2B	.
=78	=78	=78	=78
2r	2r	2.c	1e
1c	1e	.	.
.	.	8B	.
.	.	8A	.
.	.	1G	1r
[2B	[2d	.	.
=79	=79	=79	=79
2B]	2d]	1A	2r
1A	2c	.	1cc
.	1e	1E	.
2G	.	.	[2b
=80	=80	=80	=80
1F	4d	2r	2b]
.	4c	.	.
.	4B	2A	1a
.	4A	.	.
1E	2B	1e	.
.	2c	.	2g
=81	=81	=81	=81
1.D	2d	1A	1.f
.	4c	.	.
.	4B	.	.
.	[1A	1d	.
4C	.	.	4e
4BB	.	.	4d
=82	=82	=82	=82
0AA	2A]	2c	0e
.	4G	4B	.
.	4F	4A	.
.	2E	1c	.
.	[2A	.	.
=83	=83	=83	=83
1E	2A]	1B	1e
.	2G#	.	.
1r	1r	1r	1r
=84	=84	=84	=84
0E	0B	0e	0g#
=85	=85	=85	=85
1A	1.c	1e	1a
1A	.	1e	1cc
.	2A	.	.
=86	=86	=86	=86
1G#	1B	1.e	1b
1A	1c	.	1a
.	.	2e	.
=87	=87	=87	=87
1E	2B	2e	1g
.	2G	2B	.
2r	2A	2c	1e
2C	2c	2e	.
=88	=88	=88	=88
1D	2B	2.d	1f
.	2.A	.	.
.	.	8c	.
.	.	8B	.
1F	.	1A	1a
.	8B	.	.
.	8c	.	.
.	[2d	.	.
=89	=89	=89	=89
1E	4d]	1c	1g
.	4c	.	.
.	1c	.	.
1D	.	1d	1f
.	2B	.	.
=90	=90	=90	=90
1C	[0c	0G	1e
1E	.	.	1g
=91	=91	=91	=91
1F	1c]	1r	1a
1A	1r	1c	1cc
=92	=92	=92	=92
1G	2r	1d	1b
.	2G	.	.
1F	1A	1f	1a
=93	=93	=93	=93
1C	1c	1e	1.g
[1D	1B	[1d	.
.	.	.	4f
.	.	.	4e
=94	=94	=94	=94
2D]	1.A	2d]	2f
2D	.	2d	2f
4AA	.	[1c	[1e
4BB	.	.	.
4C	2A	.	.
4D	.	.	.
=95	=95	=95	=95
1E	1G	2c]	1e]
.	.	4B	.
.	.	4A	.
1G	1r	1B	1d
=96	=96	=96	=96
1C	0G	1c	1e
1E	.	2B	1g
.	.	2c	.
=97	=97	=97	=97
1D	1A	1d	1f
1C	2c	[1g	1e
.	[2c	.	.
=98	=98	=98	=98
0G	2c]	0g]	0d
.	4B	.	.
.	4A	.	.
.	2B	.	.
.	2B	.	.
=99	=99	=99	=99
0C	0c	0e	0g
*-	*-	*-	*-
!!!CDT: 1525/^1526/-1594/2/2
!!!OCY: Italia
!!!AGN: Mass (Paraphrase)
!!!AST: renaissance, vocal
!!!ASW: Hymn
!!!PWK: Masses, Book 7
!!!RNB: Cadence finals: A,C
!!!YOR: Le Opere Complete, v. 23, p. 30
!!!YOO: Rome, Italy: Fratelli Scalera
!!!END: 1992//
!!!EED: John Miller
!!!YEC: Copyright 2000, John Miller
!!!YEN: United States of America
!!!YEM: Rights to all derivative electronic formats reserved.
!!!YEM: Refer to licensing agreement for further details.
!!!YEM: This file must be accompanied by the licensing agreement.
!!!YEM: A copy of the licensing agreement may be found at http://www.music-cog.ohio-state.edu/HumdrumDatabases/Palestrina/license.txt
!!!EMD: converted to Humdrum by Bret Aarden
